images/icons/PBS-twitter_box.svg

<?xml version="1.0" encoding="UTF-8" standalone="no"?>
<svg width="256px" height="256px" viewBox="0 0 256 256" version="1.1" xmlns="http://www.w3.org/2000/svg" xmlns:xlink="http://www.w3.org/1999/xlink">
    <!-- Generator: Sketch 39.1 (31720) - http://www.bohemiancoding.com/sketch -->
    <title>PBS-twitter_box</title>
    <desc>Created with Sketch.</desc>
    <defs></defs>
    <g id="Page-1" stroke="none" stroke-width="1" fill="none" fill-rule="evenodd">
        <g id="PBS-twitter_box">
            <g id="twitter-square" transform="translate(43.000000, 42.000000)">
                <g id="twitter">
                    <g id="Page-1">
                        <g id="Icons_pg1">
                            <g id="twitter">
                                <rect id="Rectangle-10" fill="#222222" x="0" y="0" width="169.565532" height="171.917968" rx="12.5"></rect>
                                <path d="M135.798933,49.3623135 C131.897581,51.1766246 127.698942,52.4004394 123.293495,52.9481134 C127.791576,50.1308601 131.240535,45.6683309 132.866995,40.3448491 C128.659739,42.9570063 124.002244,44.8524544 119.040999,45.8756808 C115.070711,41.4492124 109.411489,38.6815428 103.149075,38.6815428 C91.1261893,38.6815428 81.3781944,48.8799997 81.3781944,61.460726 C81.3781944,63.2434838 81.5699229,64.9811657 81.9426087,66.6512334 C63.8468835,65.7001287 47.8020071,56.6330807 37.0630559,42.8510776 C35.1888557,46.2137512 34.1160378,50.1263526 34.1160378,54.3049027 C34.1160378,62.2067346 37.9592251,69.18 43.8015593,73.2638904 C40.2341163,73.1444388 36.8756358,72.1189586 33.939389,70.41283 C33.9372347,70.5074897 33.9372347,70.6044032 33.9372347,70.7013168 C33.9372347,81.7359344 41.4426522,90.9404643 51.4039181,93.0365008 C49.5771116,93.5548753 47.6533636,93.8343469 45.6671423,93.8343469 C44.2625694,93.8343469 42.8989273,93.6923574 41.5697531,93.4241549 C44.3422768,102.473172 52.381949,109.061037 61.9080557,109.243595 C54.4564946,115.353654 45.0704143,118.995799 34.867872,118.995799 C33.1121559,118.995799 31.3779821,118.887617 29.673968,118.67576 C39.312096,125.141919 50.7554879,128.910277 63.0498099,128.910277 C103.099527,128.910277 124.99751,94.2017168 124.99751,64.0999288 C124.99751,63.1127633 124.978122,62.1278516 124.93719,61.1497012 C129.189685,57.9447938 132.882076,53.9307714 135.798933,49.3623135" id="Imported-Layers" fill="#FFFFFF"></path>
                            </g>
                        </g>
                    </g>
                </g>
            </g>
        </g>
    </g>
</svg>

<svg width="256" height="256" viewBox="0 0 256 256" xmlns="http://www.w3.org/2000/svg"><title>PBS-twitter_box</title><g transform="translate(43 42)" fill="none" fill-rule="evenodd"><rect fill="#222" width="169.566" height="171.918" rx="12.5"/><path d="M135.799 49.362a41.84 41.84 0 0 1-12.506 3.586c4.499-2.817 7.948-7.28 9.574-12.603a42.438 42.438 0 0 1-13.826 5.53c-3.97-4.426-9.63-7.193-15.892-7.193-12.023 0-21.77 10.198-21.77 22.779 0 1.782.19 3.52.564 5.19-18.096-.95-34.141-10.018-44.88-23.8-1.874 3.363-2.947 7.275-2.947 11.454 0 7.902 3.843 14.875 9.686 18.959a20.986 20.986 0 0 1-9.863-2.851c-.002.094-.002.191-.002.288 0 11.035 7.506 20.24 17.467 22.336-1.827.518-3.75.797-5.737.797a20.65 20.65 0 0 1-4.097-.41c2.772 9.05 10.812 15.637 20.338 15.82-7.452 6.11-16.838 9.752-27.04 9.752-1.756 0-3.49-.108-5.194-.32 9.638 6.466 21.081 10.234 33.376 10.234 40.05 0 61.948-34.708 61.948-64.81 0-.987-.02-1.972-.06-2.95 4.252-3.205 7.944-7.22 10.86-11.788" fill="#FFF"/></g></svg>
